X:197
T:Rullande Gubben
R:sl\"angpolska
A:Sk{\aa}ne
B:SvL Sk{\aa}ne 47, efter N\"as Ingars (Inga Persdotter, D\"onaberga, Hj\"ars{\aa}s, 1835-1911)
Z:id:hn-sp-197
M:3/4
L:1/16
K:Am
c2c2 c2dc B2G2 | G2B2 B2cB A4 |
w:H\"or du, rul-lan-de gub-be, vill du l{\aa}-na mej hus?
c2c2 c2dc B2G2 | G2BB B2cB A4 || 
w:Har du peng-ar p{\aa} lom-man, etc...
e4 e2ef e2c2 | e2g2 g2ga g2e2 | e4 e2ef e2c2 | c2dc B2cB A4 :|

